assets/features/channel/southeast-asia/VIB.svg

<svg width="80" height="80" viewBox="0 0 80 80" fill="none" xmlns="http://www.w3.org/2000/svg">
<rect width="80" height="80" rx="8" fill="#0066B3"/>
<path fill-rule="evenodd" clip-rule="evenodd" d="M27.6787 37.8587C27.0971 40.9114 26.3752 45.5608 24.053 49.5562C22.9661 51.5178 21.9514 52.5368 20.0664 52.5368C18.2535 52.4606 17.1666 51.4456 16.0757 49.5562C13.7575 45.5608 12.7428 40.9114 12.0169 37.8587C11.9447 37.3492 12.0891 36.8438 12.7428 36.8438H14.6278C15.2816 36.8438 15.426 37.0604 15.6426 37.9309C16.2963 40.9114 17.4554 45.5608 19.1238 48.0318C19.1238 48.0318 19.557 48.6857 20.0664 48.6857C20.5717 48.6857 20.9367 48.0318 20.9367 48.0318C22.6011 45.5608 23.3993 40.9114 24.1252 37.9309C24.3418 37.0604 24.5624 36.8438 25.1399 36.8438H27.0249C27.6787 36.8438 27.8231 37.4254 27.6787 37.8587ZM33.4781 37.5698V51.5178C33.4781 51.8829 33.1894 52.1717 32.8244 52.1717H30.7228C30.3618 52.1717 30.069 51.8829 30.069 51.5178V37.4976C30.069 37.1326 30.3618 36.8438 30.7228 36.8438H32.8244C33.1894 36.8438 33.4781 37.2048 33.4781 37.5698ZM49.9381 47.739C49.9381 50.864 47.6881 52.2439 44.5717 52.2439C44.5717 52.2439 37.6854 52.2439 37.2482 52.2439C36.815 52.2439 36.5223 52.0273 36.5223 51.3734V37.7142C36.5223 37.2048 36.815 36.916 37.3204 36.916C37.7576 36.916 43.8458 36.916 43.8458 36.916C46.8939 36.916 48.9955 37.9309 48.9955 40.6186C48.9955 42.0026 48.1252 43.1619 47.0383 43.7435C46.9661 43.8158 46.9661 43.8158 46.8217 43.888C48.779 44.3252 50.0103 45.7774 49.9381 47.739ZM39.9314 42.873H43.4848C44.6439 42.873 45.5143 42.2914 45.5143 41.128C45.5143 40.0409 44.7161 39.4593 43.3405 39.4593H39.9314V42.873ZM46.4568 47.5224C46.4568 46.0702 45.3699 45.4163 43.7736 45.4163H39.9314V49.5562H43.7736C45.0811 49.5562 46.4568 49.119 46.4568 47.5224Z" fill="white"/>
<path d="M63.3016 27.2002C61.8136 27.2002 61.204 27.5893 60.3217 28.4197L58.4446 30.4656L56.6198 28.4197C55.7936 27.5893 55.1839 27.2002 53.6358 27.2002H51.4299C51.4299 27.2002 54.8511 31.4604 55.2962 31.9578C56.0663 32.7882 56.5115 33.1773 57.5583 33.1773H59.3832C60.3778 33.1773 60.8711 32.7882 61.6452 31.9578C62.0864 31.5166 65.5115 27.2002 65.5115 27.2002H63.3016Z" fill="#FCB813"/>
<path d="M62.0864 32.7883C61.0396 33.013 60.43 33.2336 59.8805 34.1723L59.4353 34.9465L58.942 35.6686C58.3885 36.5551 58.553 37.1609 58.8859 38.268C59.1064 38.8778 61.0958 43.9684 61.0958 43.9684L62.1425 42.087C62.9166 40.8153 62.9166 40.0411 62.5837 38.8778L61.7575 36.2783L64.4647 35.6686C65.6238 35.3918 66.2295 35.0027 66.9474 33.6749L67.9982 31.7935C68.1105 31.7935 62.696 32.6238 62.0864 32.7883Z" fill="#F37920"/>
<path d="M57.8912 35.6686L57.4501 34.8944L57.0089 34.1201C56.4554 33.2336 55.8458 32.9568 54.799 32.7362C54.1894 32.5677 48.7228 31.7373 48.7228 31.7373L49.7736 33.6187C50.5436 34.8944 51.1533 35.2795 52.2562 35.6124L55.0757 36.2222L54.2455 38.934C53.9688 40.0411 53.9688 40.8153 54.6867 42.087L55.7375 43.9684C55.7375 43.9684 57.7268 38.8778 57.9474 38.268C58.3324 37.1609 58.4447 36.5551 57.8912 35.6686Z" fill="#F6921E"/>
</svg>

<svg xmlns="http://www.w3.org/2000/svg" width="80" height="80" fill="none" viewBox="0 0 80 80"><rect width="80" height="80" fill="#0066b3" rx="8"/><path fill="#fff" fill-rule="evenodd" d="M27.679 37.859c-.582 3.052-1.304 7.702-3.626 11.697-1.087 1.962-2.102 2.98-3.987 2.98-1.812-.075-2.9-1.09-3.99-2.98-2.318-3.995-3.333-8.645-4.06-11.697-.071-.51.073-1.015.727-1.015h1.885c.654 0 .798.216 1.015 1.087.653 2.98 1.812 7.63 3.48 10.1 0 0 .434.655.943.655.506 0 .87-.654.87-.654 1.665-2.471 2.463-7.12 3.19-10.101.216-.87.436-1.087 1.014-1.087h1.885c.654 0 .798.581.654 1.015m5.8-.29v13.949a.65.65 0 0 1-.655.654h-2.101a.65.65 0 0 1-.654-.654v-14.02c0-.365.293-.654.654-.654h2.101c.365 0 .654.36.654.726m16.46 10.17c0 3.125-2.25 4.505-5.367 4.505h-7.324c-.433 0-.726-.217-.726-.87v-13.66c0-.51.293-.798.798-.798h6.526c3.048 0 5.15 1.015 5.15 3.703 0 1.384-.87 2.543-1.958 3.124-.072.073-.072.073-.216.145 1.957.437 3.188 1.89 3.116 3.851M39.93 42.873h3.554c1.159 0 2.03-.582 2.03-1.745 0-1.087-.799-1.669-2.175-1.669H39.93zm6.526 4.65c0-1.453-1.087-2.107-2.683-2.107H39.93v4.14h3.843c1.307 0 2.683-.437 2.683-2.034" clip-rule="evenodd"/><path fill="#fcb813" d="M63.302 27.2c-1.488 0-2.098.39-2.98 1.22l-1.877 2.046-1.825-2.046c-.826-.83-1.436-1.22-2.984-1.22H51.43s3.421 4.26 3.866 4.758c.77.83 1.215 1.22 2.262 1.22h1.825c.995 0 1.488-.39 2.262-1.22.441-.441 3.866-4.758 3.866-4.758z"/><path fill="#f37920" d="M62.086 32.788c-1.046.225-1.656.446-2.206 1.384l-.445.775-.493.722c-.553.886-.389 1.492-.056 2.599.22.61 2.21 5.7 2.21 5.7l1.047-1.881c.774-1.272.774-2.046.44-3.21l-.825-2.599 2.707-.61c1.159-.276 1.764-.665 2.482-1.993l1.051-1.881c.112 0-5.302.83-5.912.994"/><path fill="#f6921e" d="m57.891 35.669-.44-.775-.442-.774c-.554-.886-1.163-1.163-2.21-1.384-.61-.168-6.076-.999-6.076-.999l1.05 1.882c.77 1.275 1.38 1.66 2.483 1.993l2.82.61-.83 2.712c-.277 1.107-.277 1.881.44 3.153l1.051 1.881s1.99-5.09 2.21-5.7c.385-1.107.498-1.713-.056-2.6"/></svg>
